X: 1
T: Arkansas Traveler, The
M: 4/4
L: 1/8
R: reel
K: Dmaj
B,C |: DFED B,2B,2 | A,2A,2 D4 | E2E2 F2F2 | DFED B,2A,2 |
DFED B,2B,2  | A,2A,2 D4 | dcdA BdAG |[1 FDEC D2B,C :|[2 FDEC D2fg ||
|: agfa gfeg | fedf edce | dcdf edeg |fedf e2fg |
agfa gfeg | fedf edce | dcdA BdAG |[1 FDEC D2fg :|[2 FDEC D2 |
